X: 1
T: St. Barnard's Waltz
M: 3/4
L: 1/4
C: Ward & Swallow
S: Tim Willets <tlw@redowa.co.uk> tradtunes 2004-1-23
P: Play A-A-B-A
K: C
"A"|:"C"e3 | c3 | Gz"*"^G | "*"AzG \
| "C"e3 | "A/c#"e3 | "Dm"f3- | f2G |
| "G7"f3 | d3 | B3 | A3 \
| "G7"GBd | g_gf | "C"e^de | "G7"dBG |
| "C"e3 | c3 | Gz"*"^G | "*"AzG \
| "C"E3 | G2^G | "F"A3- | ABc |
| "F"cBA | "D7"cBA | "C"Gce | "A7"g_gf \
| "Dm"e3 | "G7"d3 | "C"HcGA | "G"Bcd :|
"B"[|"C"e2g | "G"d2g | "C"cz"*"z | "*"zzz \
| "C"G2A | "G"F2G | "C"E3 | GAB |
| "F"c3 | cBA | "G7"G2F | D3 \
| G2F | D3 | "F"A2G | "G7"GAB |
| "C"e2g | "G"d2g | "C"cz"*"z | "*"zzz \
| "C"c3 | c2B | "F"A3 | "G7"GAB |
| "F"c3 | B2A | "C"G2c | EGc \
| "Am"e2e | "G7"fed | "C"cGA | "G7"Bcd "^d.C."y|]
%%text * Stamps
